components/Icon/svg/card.svg

<svg width="32px" height="32px" viewBox="0 0 32 32" version="1.1" xmlns="http://www.w3.org/2000/svg"><path d="M29.6,5 C30.9232,5 32,6.05757143 32,7.35714286 L32,24.6428571 C32,25.9424286 30.9232,27 29.6,27 L2.4,27 C1.0768,27 0,25.9424286 0,24.6428571 L0,7.35714286 C0,6.05757143 1.0768,5 2.4,5 L29.6,5 Z M29.6,6.57142857 L2.4,6.57142857 C1.9584,6.57142857 1.6,6.92342857 1.6,7.35714286 L1.6,24.6428571 C1.6,25.0765714 1.9584,25.4285714 2.4,25.4285714 L29.6,25.4285714 C30.0416,25.4285714 30.4,25.0765714 30.4,24.6428571 L30.4,7.35714286 C30.4,6.92342857 30.0416,6.57142857 29.6,6.57142857 Z M9.6,17.5714286 C12.0336,17.5714286 13.2144,18.6274286 13.7792,19.5121429 C14.32,20.3622857 14.3904,21.1998571 14.4,21.4402857 C14.4016,21.4591429 14.4016,21.4795714 14.4016,21.5 C14.4016,21.9003516 14.0962178,22.2310769 13.7019055,22.2795888 L13.6014,22.2857143 L13.6014,22.2857143 L5.6,22.2857143 C5.1584,22.2857143 4.8,21.9337143 4.8,21.5 C4.8,21.3962857 4.8176,20.4612857 5.4208,19.5121429 C5.984,18.6274286 7.1664,17.5714286 9.6,17.5714286 Z M26.4,20.7142857 C26.8416,20.7142857 27.2,21.0662857 27.2,21.5 C27.2,21.9337143 26.8416,22.2857143 26.4,22.2857143 L18.4,22.2857143 C17.9584,22.2857143 17.6,21.9337143 17.6,21.5 C17.6,21.0662857 17.9584,20.7142857 18.4,20.7142857 L26.4,20.7142857 Z M9.6,19.1428571 C8.264,19.1428571 7.3264,19.531 6.8112,20.2947143 C6.7168,20.4361429 6.6432,20.5775714 6.5872,20.7142857 L12.6128,20.7142857 C12.5568,20.5791429 12.4832,20.4361429 12.3888,20.2947143 C11.8736,19.5294286 10.936,19.1428571 9.6,19.1428571 Z M24.8,17.5714286 C25.2416,17.5714286 25.6,17.9234286 25.6,18.3571429 C25.6,18.7908571 25.2416,19.1428571 24.8,19.1428571 L18.4,19.1428571 C17.9584,19.1428571 17.6,18.7908571 17.6,18.3571429 C17.6,17.9234286 17.9584,17.5714286 18.4,17.5714286 L24.8,17.5714286 Z M24.8,14.4285714 C25.2416,14.4285714 25.6,14.7805714 25.6,15.2142857 C25.6,15.648 25.2416,16 24.8,16 L18.4,16 C17.9584,16 17.6,15.648 17.6,15.2142857 C17.6,14.7805714 17.9584,14.4285714 18.4,14.4285714 L24.8,14.4285714 Z M9.6,9.71428571 C11.3648,9.71428571 12.8,11.1238571 12.8,12.8571429 C12.8,14.5904286 11.3648,16 9.6,16 C7.8352,16 6.4,14.5904286 6.4,12.8571429 C6.4,11.1238571 7.8352,9.71428571 9.6,9.71428571 Z M9.6,11.2857143 C8.7184,11.2857143 8,11.9912857 8,12.8571429 C8,13.723 8.7184,14.4285714 9.6,14.4285714 C10.4816,14.4285714 11.2,13.723 11.2,12.8571429 C11.2,11.9912857 10.4816,11.2857143 9.6,11.2857143 Z M26.4,11.2857143 C26.8416,11.2857143 27.2,11.6377143 27.2,12.0714286 C27.2,12.5051429 26.8416,12.8571429 26.4,12.8571429 L18.4,12.8571429 C17.9584,12.8571429 17.6,12.5051429 17.6,12.0714286 C17.6,11.6377143 17.9584,11.2857143 18.4,11.2857143 L26.4,11.2857143 Z" fill="currentColor"></path></svg>

<svg xmlns="http://www.w3.org/2000/svg" width="32" height="32" viewBox="0 0 32 32">
  <path fill="currentColor" d="M29.6 5C30.923 5 32 6.058 32 7.357v17.286c0 1.3-1.077 2.357-2.4 2.357H2.4C1.077 27 0 25.942 0 24.643V7.357C0 6.057 1.077 5 2.4 5h27.2Zm0 1.571H2.4c-.442 0-.8.352-.8.786v17.286c0 .434.358.786.8.786h27.2c.442 0 .8-.352.8-.786V7.357a.793.793 0 0 0-.8-.786Zm-20 11c2.434 0 3.614 1.056 4.18 1.941a4.035 4.035 0 0 1 .622 1.988c0 .4-.306.731-.7.78l-.1.006H5.6a.793.793 0 0 1-.8-.786c0-.104.018-1.039.62-1.988.564-.885 1.746-1.94 4.18-1.94Zm16.8 3.143c.442 0 .8.352.8.786a.793.793 0 0 1-.8.786h-8a.793.793 0 0 1-.8-.786c0-.434.358-.786.8-.786h8ZM9.6 19.143c-1.336 0-2.274.388-2.789 1.152a2.385 2.385 0 0 0-.224.42h6.026a2.442 2.442 0 0 0-.224-.42c-.515-.766-1.453-1.152-2.789-1.152Zm15.2-1.572c.442 0 .8.352.8.786a.793.793 0 0 1-.8.786h-6.4a.793.793 0 0 1-.8-.786c0-.434.358-.786.8-.786h6.4Zm0-3.142c.442 0 .8.352.8.785a.793.793 0 0 1-.8.786h-6.4a.793.793 0 0 1-.8-.786c0-.433.358-.785.8-.785h6.4ZM9.6 9.714c1.765 0 3.2 1.41 3.2 3.143C12.8 14.59 11.365 16 9.6 16c-1.765 0-3.2-1.41-3.2-3.143 0-1.733 1.435-3.143 3.2-3.143Zm0 1.572c-.882 0-1.6.705-1.6 1.571s.718 1.572 1.6 1.572c.882 0 1.6-.706 1.6-1.572 0-.866-.718-1.571-1.6-1.571Zm16.8 0c.442 0 .8.352.8.785a.793.793 0 0 1-.8.786h-8a.793.793 0 0 1-.8-.786c0-.433.358-.785.8-.785h8Z"/>
</svg>
